X: 760
T: Out With the Boys - 1st Setting   #2
R: jig
%S: s:2 b:13(7+6)
N: O'Neill's 1850 "Music of Ireland" #760
O: J. O'Neill.
Z: Stephen Foy (shf@access.digex.net)
N: Fermata above first double bar-line.
N: D.C. under last bar-line.
N: Both attached to last note, to satisfy software that doesn't recognize them on bar lines.
M: 6/8
K: G
"^A"|: B | G3  g2e | dBG [1 AFD | G3  g2e | dBG A2 :|[2 GAB | cde dcB | cAF HG2 |]
B "^B"|: eBe gbg | eBe [1 gbg | eBe g2a | bag agf :|[2 g2a | bag agf | e3 "_D.C."d2 |]
